X:2190
T:Gentle-moon Waltz,The. CJF.148
O:england
M:3/8
L:1/16
Q:45
S: C.J.Fox MS, 1829/33, Beverley,E.Yorks.
R:Waltz
A:East Yorkshire
B:Kidson Coll.Mitchell Lib.M1805
N:Note marked "" is B2 in MS. - PJH.
K:C
"p"E>F G2c2|E>F G2e2|d>c A2F2|A2G2G2|G>^F G2A2|\
B>c d2d2|d2A2B2|c2G2 G2|"f"E>F G2c2|
E>F G2e2|d>c A2F2|A2G2 G2|{A}G^F G2A2|\
Bc d2d2|dcBAG^F|A2G2||"f"G2|{A}G^FGB d2|
{e}dcec G2|GfedcB|c2G2 G2|{A}G^FGB d2|{A}G^FGcGc|\
""B3AG^F|A2G2 ^F=F|"f"E>F G2c2|
E>F G2e2|d>c A2F2|A2G2G2|GBd4|\
Gc eGce|g3fed|f2e2d2|GBd4|GceGce|
g3fed|c2c2z2||
